X:1
T:ALLONS AUX VENDANGES
C:Michel PLATRE
Z:Creative Commons BY-NC-SA
L:1/16
M:2/4
K:C
V:1 treble nm="Part_1"
V:1
 g2g2 g4 | f2e2 d4 | cdef e2dc | d2e2 d4 | g2g2 g4 | f2e2 d4 | cdef e2dc |1 B2d2 c4 :|2 e2d2 c4 |: %9
 Bcde fedg | fedc d2B2 | Bcde fedc | B2A2 G4 | Bcde fedg | fedc d2B2 | Bcde f4 | d2G2 c4 :| %17

